epam-assets/icon-sources/18/media-playlist-play.svg

<svg width="18" height="18" viewBox="0 0 18 18" fill="none" xmlns="http://www.w3.org/2000/svg">
<g id="18/media-playlist-play">
<g id="icon">
<path d="M3.375 12V10.5H8.625V12H3.375ZM3.375 9V7.5H12.375V9H3.375ZM3.375 6V4.5H12.375V6H3.375Z" fill="#6C6F80"/>
<path d="M10.875 10.5V16.5L15.375 13.5L10.875 10.5Z" fill="#6C6F80"/>
</g>
</g>
</svg>

<svg xmlns="http://www.w3.org/2000/svg" width="18" height="18" fill="none" viewBox="0 0 18 18">
  <path fill="#6C6F80" d="M3.375 12v-1.5h5.25V12h-5.25Zm0-3V7.5h9V9h-9Zm0-3V4.5h9V6h-9Zm7.5 4.5v6l4.5-3-4.5-3Z"/>
</svg>
